X: 164
T: Xiu hebao
L: 1/4
M: 3/4
K: F
f/ d/cG [I:setbarnb 1]| 
c/ d/cc | 
BGB/ D/ | 
C3 | 
FCF | 
GcC | 
FDC/ D/ | 
C3 |]

@@@ Tune index: 9038
